html/assets/images/static/brand-logo.svg

<svg width="201" height="54" viewBox="0 0 201 54" fill="none" xmlns="http://www.w3.org/2000/svg">
<path d="M200.775 24.9408C201.281 17.5618 196.436 11.0118 189.235 9.36048C185.366 8.47332 181.384 9.15326 178.024 11.2773C175.218 13.0516 173.127 15.6548 172 18.7307C171.317 17.3352 171.036 15.7713 171.213 14.188C171.458 11.9993 172.538 10.0372 174.264 8.6514C177.393 6.1421 181.974 6.29428 184.918 9.00756L189.416 4.07963C183.99 -0.919534 175.875 -1.19475 170.102 3.4353C164.21 8.15925 162.85 16.5031 166.645 22.8232C162.973 22.0041 160.218 18.7048 160.218 14.7546C160.218 10.8045 163.195 7.22677 167.141 6.60835L166.114 0C158.842 1.14294 153.565 7.3498 153.565 14.7708C153.565 22.1919 159.206 28.6157 166.491 29.5741C165.289 30.5551 163.833 31.1768 162.257 31.3548C160.079 31.6009 157.934 30.9825 156.207 29.5967C153.076 27.0874 152.206 22.5642 154.184 19.0771L148.401 15.7681C144.757 22.1951 146.297 30.2087 152.071 34.8355C154.802 37.0242 158.072 38.0862 161.32 38.0862C165.079 38.0862 168.81 36.6584 171.645 33.9062C171.668 37.688 169.081 41.1233 165.25 42.004C161.349 42.8976 157.286 40.7639 155.804 37.0339L149.625 39.5141C151.926 45.3033 157.396 48.9037 163.369 48.9037C164.483 48.9037 165.614 48.7774 166.745 48.5184C174.094 46.8315 178.923 39.9059 178.23 32.5561C181.188 34.897 182.248 39.0705 180.54 42.6288C178.804 46.2552 174.612 48.1137 170.785 46.9513L168.862 53.3524C170.305 53.7895 171.764 54 173.198 54C178.771 54 183.994 50.8302 186.542 45.5137C188.262 41.9198 188.491 37.8661 187.18 34.1005C186.084 30.9566 184.023 28.3307 181.291 26.5402C182.798 26.1841 184.374 26.2553 185.872 26.7831C187.94 27.5116 189.606 29.0042 190.563 31.0052C192.299 34.6315 191.13 39.0835 187.843 41.3661L191.622 46.8704C197.679 42.6677 199.754 34.7772 196.548 28.0879C194.825 24.4939 191.813 21.7904 188.066 20.4726C184.938 19.3717 181.61 19.3556 178.514 20.3852C179.174 18.98 180.215 17.7852 181.558 16.9369C183.414 15.7648 185.614 15.3893 187.766 15.8846C191.671 16.7815 194.406 20.4726 194.132 24.481L200.769 24.9408H200.775Z" fill="white"/>
<path d="M3.14436 10.3705V22.468H0V6.94141H3.12193C4.3143 6.94141 4.83034 7.5534 5.30151 8.14597L11.6832 16.0663L18.0649 8.14597C18.5361 7.55664 19.0521 6.94141 20.2445 6.94141H23.3664V22.468H20.222V10.3705L12.9204 19.2688H10.4492L3.14757 10.3705H3.14436Z" fill="white"/>
<path d="M47.8832 22.4678H44.4215L42.4662 18.6307H31.142L29.1868 22.4678H25.7476L32.0395 10.0077C33.0043 8.07776 34.1742 6.71777 36.8025 6.71777C39.4309 6.71777 40.5783 8.081 41.5656 10.0077L47.8799 22.4678H47.8832ZM38.402 10.665C38.0654 10.0077 37.6391 9.59966 36.8057 9.59966C35.9724 9.59966 35.5461 10.0077 35.2095 10.665L32.6036 15.7488H40.9854L38.402 10.665Z" fill="white"/>
<path d="M63.2543 19.5634C65.1422 19.5634 65.748 18.9741 65.748 18.1095C65.748 17.0669 64.8281 16.5423 62.6261 16.361L55.1899 15.7716C51.7282 15.4996 49.664 14.2497 49.664 11.3905C49.664 8.10064 52.4045 6.94141 55.5745 6.94141H68.0687V9.84596H55.2828C53.7763 9.84596 52.9238 10.254 52.9238 11.2999C52.9238 12.1612 53.5071 12.6178 56.0232 12.8217L63.1005 13.3884C66.7192 13.6831 69.0559 14.8423 69.0559 17.9735C69.0559 20.6061 67.3923 22.468 63.0556 22.468H49.5967V19.5634H63.2575H63.2543Z" fill="white"/>
<path d="M71.9033 6.94141H84.5321C90.0355 6.94141 91.9234 9.59663 91.9234 14.7031C91.9234 19.8095 90.0355 22.4647 84.5321 22.4647H71.9033V6.94141ZM84.5321 10.0953H75.1182V19.2882H84.5321C88.1957 19.2882 88.6444 17.6756 88.6444 14.7031C88.6444 11.7305 88.1957 10.0953 84.5321 10.0953Z" fill="white"/>
<path d="M114.935 22.4678H111.473L109.518 18.6307H98.1938L96.2386 22.4678H92.7993L99.0913 10.0077C100.056 8.07776 101.226 6.71777 103.854 6.71777C106.483 6.71777 107.63 8.081 108.617 10.0077L114.932 22.4678H114.935ZM105.454 10.665C105.117 10.0077 104.691 9.59966 103.857 9.59966C103.024 9.59966 102.598 10.0077 102.261 10.665L99.6554 15.7488H108.037L105.454 10.665Z" fill="white"/>
<path d="M117.298 6.94141H130.645C134.42 6.94141 136.757 8.6673 136.757 11.7759C136.757 13.9551 135.61 15.2956 133.613 15.885C135.568 16.5196 136.421 17.7922 136.421 19.4048V22.468H133.097V19.3368C133.097 18.4754 132.625 17.3615 130.58 17.3615H120.516V22.468H117.304V6.94141H117.298ZM130.891 14.4764C132.869 14.4764 133.475 13.1585 133.475 12.1385C133.475 11.1185 132.869 9.80063 130.891 9.80063H120.51V14.4764H130.891Z" fill="white"/>
<path d="M87.2718 34.9088H75.1174C71.4313 34.9088 70.9826 36.544 70.9826 39.5165C70.9826 42.4891 71.4313 44.1017 75.1174 44.1017H87.2718V47.2782H75.1174C69.5915 47.2782 67.7036 44.623 67.7036 39.5165C67.7036 34.4101 69.5915 31.7549 75.1174 31.7549H87.2718V34.9088Z" fill="white"/>
<path d="M93.5449 31.7549V47.2815H90.3333V31.7549H93.5449Z" fill="white"/>
<path d="M103.519 47.2811V34.685H95.8804V31.7578H114.372V34.685H106.733V47.2811H103.522H103.519Z" fill="white"/>
<path d="M119.564 31.7549L124.283 37.4992C124.754 38.0886 125.359 38.6779 125.811 39.4745C126.26 38.6811 126.866 38.0886 127.363 37.4992L132.081 31.7549H136.754L129.161 40.1318C128.667 40.6758 127.43 41.903 127.43 42.8323V47.2815H124.218V42.8323C124.218 41.8803 122.959 40.6531 122.488 40.1318L114.894 31.7549H119.568H119.564Z" fill="white"/>
</svg>

<svg width="201" height="54" fill="none" xmlns="http://www.w3.org/2000/svg"><path d="M200.775 24.94c.506-7.378-4.339-13.928-11.54-15.58a14.692 14.692 0 00-11.211 1.917A14.811 14.811 0 00172 18.731a8.221 8.221 0 01-.787-4.543 8.223 8.223 0 013.051-5.537c3.129-2.509 7.71-2.357 10.654.357l4.498-4.928c-5.426-5-13.541-5.275-19.314-.645-5.892 4.724-7.252 13.068-3.457 19.388-3.672-.819-6.427-4.118-6.427-8.068 0-3.95 2.977-7.528 6.923-8.147L166.114 0c-7.272 1.143-12.549 7.35-12.549 14.77 0 7.422 5.641 13.846 12.926 14.804a8.11 8.11 0 01-4.234 1.78 8.133 8.133 0 01-6.05-1.757c-3.131-2.51-4.001-7.033-2.023-10.52l-5.783-3.309c-3.644 6.427-2.104 14.44 3.67 19.068a14.74 14.74 0 009.249 3.25c3.759 0 7.49-1.428 10.325-4.18.023 3.782-2.564 7.217-6.395 8.098-3.901.894-7.964-1.24-9.446-4.97l-6.179 2.48c2.301 5.79 7.771 9.39 13.744 9.39 1.114 0 2.245-.127 3.376-.386 7.349-1.687 12.178-8.612 11.485-15.962a8.289 8.289 0 012.31 10.073c-1.736 3.626-5.928 5.485-9.755 4.322l-1.923 6.401c1.443.438 2.902.648 4.336.648 5.573 0 10.796-3.17 13.344-8.486a14.916 14.916 0 00.638-11.414 14.822 14.822 0 00-5.889-7.56 8.108 8.108 0 014.581.243 8.177 8.177 0 014.691 4.222c1.736 3.627.567 8.079-2.72 10.361l3.779 5.504c6.057-4.202 8.132-12.093 4.926-18.782a14.791 14.791 0 00-8.482-7.615 14.678 14.678 0 00-9.552-.088 8.173 8.173 0 013.044-3.448 8.122 8.122 0 016.208-1.052c3.905.897 6.64 4.588 6.366 8.596l6.637.46h.006zM3.144 10.37v12.098H0V6.941h3.122c1.192 0 1.708.612 2.18 1.205l6.381 7.92 6.382-7.92c.471-.59.987-1.205 2.18-1.205h3.121v15.527h-3.144V10.37l-7.302 8.9h-2.47l-7.303-8.9h-.004zm44.739 12.098h-3.462l-1.955-3.837H31.142l-1.955 3.837h-3.44l6.292-12.46c.965-1.93 2.135-3.29 4.764-3.29 2.628 0 3.775 1.363 4.763 3.29l6.314 12.46h.003zm-9.481-11.803c-.337-.657-.763-1.065-1.596-1.065-.834 0-1.26.408-1.596 1.065l-2.606 5.084h8.381l-2.583-5.084zm24.852 8.898c1.888 0 2.494-.589 2.494-1.453 0-1.043-.92-1.568-3.122-1.749l-7.436-.59c-3.462-.271-5.526-1.521-5.526-4.38 0-3.29 2.74-4.45 5.91-4.45H68.07v2.905H55.283c-1.507 0-2.36.408-2.36 1.454 0 .861.584 1.318 3.1 1.522l7.077.566c3.62.295 5.956 1.454 5.956 4.586 0 2.632-1.664 4.494-6 4.494h-13.46v-2.905h13.662-.004zm8.649-12.622h12.63c5.502 0 7.39 2.656 7.39 7.762 0 5.107-1.888 7.762-7.39 7.762h-12.63V6.94zm12.63 3.154h-9.415v9.193h9.414c3.664 0 4.112-1.612 4.112-4.585s-.448-4.608-4.112-4.608zm30.402 12.373h-3.462l-1.955-3.837H98.194l-1.955 3.837h-3.44l6.292-12.46c.965-1.93 2.135-3.29 4.763-3.29 2.629 0 3.776 1.363 4.763 3.29l6.315 12.46h.003zm-9.481-11.803c-.337-.657-.763-1.065-1.597-1.065-.833 0-1.259.408-1.596 1.065l-2.606 5.084h8.382l-2.583-5.084zm11.844-3.724h13.347c3.775 0 6.112 1.726 6.112 4.835 0 2.18-1.147 3.52-3.144 4.109 1.955.635 2.808 1.907 2.808 3.52v3.063h-3.324v-3.131c0-.862-.472-1.976-2.517-1.976h-10.064v5.107h-3.212V6.941h-.006zm13.593 7.535c1.978 0 2.584-1.318 2.584-2.338s-.606-2.337-2.584-2.337H120.51v4.675h10.381zM87.272 34.909H75.117c-3.686 0-4.134 1.635-4.134 4.608 0 2.972.448 4.585 4.134 4.585h12.155v3.176H75.117c-5.526 0-7.413-2.655-7.413-7.761 0-5.107 1.888-7.762 7.413-7.762h12.155v3.154zm6.273-3.154v15.527h-3.212V31.755h3.212zm9.974 15.526V34.685H95.88v-2.927h18.492v2.927h-7.639v12.596h-3.214zm16.045-15.526l4.719 5.744c.471.59 1.076 1.179 1.528 1.975.449-.793 1.055-1.385 1.552-1.975l4.718-5.744h4.673l-7.593 8.377c-.494.544-1.731 1.771-1.731 2.7v4.45h-3.212v-4.45c0-.952-1.259-2.179-1.73-2.7l-7.594-8.377h4.674-.004z" fill="#fff"/></svg>
